dist/img/carticon2.svg

<svg width="35" height="35" viewBox="0 0 35 35" xmlns="http://www.w3.org/2000/svg">
<path d="M23.7891 0C23.5477 0 23.334 0.158081 23.2657 0.39093L22.063 4.41772C22.0117 4.5929 21.8814 4.72534 21.7084 4.78088C21.5375 4.83856 21.3538 4.80652 21.2085 4.69544L17.8674 2.14478C17.6773 1.99738 17.4103 1.9931 17.2159 2.13623C17.0193 2.27936 16.9403 2.53143 17.0215 2.76001L18.4164 6.72485C18.4784 6.89575 18.4506 7.07947 18.3438 7.229C18.237 7.3764 18.0704 7.47681 17.8867 7.45331L13.6868 7.35077H13.6719C13.4369 7.35077 13.2254 7.50244 13.1528 7.72888C13.078 7.9596 13.1635 8.20953 13.3621 8.34839L16.8228 10.7346C16.9723 10.8371 17.0578 11.0016 17.0578 11.1853C17.0578 11.3669 16.9723 11.5314 16.8228 11.6339L13.3621 14.0222C13.1635 14.1589 13.078 14.4089 13.1528 14.6396C13.2275 14.8703 13.4369 15.0156 13.6868 15.0177L16.9702 14.9365L0.751953 31.1548C0.337525 31.5692 0.111084 32.1182 0.111084 32.7014C0.111084 33.2867 0.337525 33.8358 0.751953 34.248C1.16425 34.6625 1.71326 34.8889 2.29858 34.8889C2.88177 34.8889 3.43079 34.6625 3.84521 34.248L21.6208 16.4703L23.2657 21.9797C23.334 22.2125 23.5477 22.3706 23.7891 22.3706C24.0305 22.3706 24.2441 22.2125 24.3124 21.9797L25.5151 17.9529C25.5664 17.7756 25.6967 17.6431 25.8697 17.5854C26.0406 17.5299 26.2244 17.562 26.3696 17.673L29.7107 20.2258C29.9008 20.3732 30.1678 20.3754 30.3622 20.2344C30.5588 20.0912 30.6378 19.837 30.5566 19.6106L29.1617 15.6458C29.0997 15.4727 29.1275 15.289 29.2343 15.1416C29.339 14.9963 29.4992 14.9152 29.6765 14.9152C29.6808 14.9152 29.6851 14.9152 29.6915 14.9173L33.8913 15.0198C34.1327 15.0134 34.3506 14.8703 34.4275 14.6396C34.5023 14.411 34.4147 14.1589 34.216 14.0222L30.7553 11.636C30.6058 11.5314 30.5203 11.369 30.5203 11.1853C30.5203 11.0016 30.6058 10.8392 30.7553 10.7346L34.216 8.34839C34.4147 8.21167 34.5023 7.95959 34.4275 7.73102C34.3527 7.50031 34.1348 7.34009 33.8913 7.35077L29.6915 7.45331C29.4821 7.46399 29.3411 7.3764 29.2343 7.229C29.1275 7.0816 29.0997 6.89789 29.1617 6.72485L30.5566 2.76001C30.6378 2.53357 30.5588 2.27936 30.3622 2.13623C30.1678 1.99524 29.9008 1.99738 29.7107 2.14478L26.3696 4.69757C26.2244 4.80865 26.0406 4.83856 25.8697 4.78088C25.6967 4.72534 25.5664 4.5929 25.5151 4.41772L24.3124 0.39093C24.2441 0.158081 24.0305 0 23.7891 0ZM13.9004 0.00427246C13.7595 -0.0106812 13.6142 0.0256348 13.4988 0.121765C13.2617 0.31189 13.2254 0.655823 13.4155 0.890808L14.1055 1.74103C14.2123 1.87347 14.3704 1.94397 14.5306 1.94397C14.6524 1.94397 14.772 1.90338 14.8746 1.8222C15.1096 1.63208 15.1459 1.28815 14.9536 1.05316L14.2679 0.202942C14.1718 0.0854492 14.0393 0.0170898 13.9004 0.00427246ZM11.792 2.07642C11.6531 2.09991 11.5228 2.17255 11.4331 2.29431C11.2558 2.53998 11.3092 2.88177 11.5549 3.05908L12.4393 3.70422C12.5354 3.77472 12.6486 3.80676 12.7597 3.80676C12.9285 3.80676 13.0951 3.72986 13.2019 3.58246C13.3813 3.33893 13.3279 2.99713 13.0823 2.81982L12.1979 2.17468C12.0761 2.0871 11.9287 2.05505 11.792 2.07642ZM23.7891 2.46094L24.4662 4.72961C24.6201 5.24658 25.0195 5.6546 25.5322 5.82123C26.0428 5.98999 26.6046 5.89386 27.034 5.56488L28.916 4.1272L28.1299 6.36169C27.9504 6.87012 28.0337 7.43408 28.3499 7.86987C28.6661 8.3078 29.1809 8.54919 29.7171 8.54492L32.0862 8.48724L30.1358 9.83521C29.6915 10.1407 29.4266 10.6448 29.4266 11.1853C29.4266 11.7236 29.6915 12.2278 30.1358 12.5354L32.0862 13.8812L29.7171 13.8235C29.1809 13.8193 28.6661 14.0628 28.3499 14.4986C28.0337 14.9344 27.9504 15.4984 28.1299 16.0068L28.916 18.2434L27.034 16.8057C26.6067 16.4767 26.0428 16.3806 25.5322 16.5472C25.0195 16.7139 24.6201 17.1219 24.4662 17.6389L23.7891 19.9097L22.5009 15.5923L25.498 12.5952C25.9125 12.1808 26.1389 11.6318 26.1389 11.0486C26.1389 10.4633 25.9125 9.91425 25.498 9.50195C25.0858 9.08752 24.5367 8.86108 23.9514 8.86108C23.3682 8.86108 22.8192 9.08752 22.4048 9.50195L18.0896 13.8171L15.4919 13.8812L17.4402 12.5354C17.8845 12.2278 18.1494 11.7236 18.1494 11.1853C18.1494 10.6448 17.8867 10.1407 17.4402 9.83521L15.4919 8.48724L17.8589 8.54492C18.4036 8.54919 18.912 8.30566 19.2282 7.86987C19.5444 7.43408 19.6277 6.87012 19.4482 6.36169L18.6621 4.1272L20.542 5.56488C20.9714 5.89386 21.5332 5.98999 22.0459 5.82123C22.5586 5.6546 22.9581 5.24658 23.1119 4.72961L23.7891 2.46094ZM10.4932 4.57794C10.2817 4.58435 10.083 4.71893 9.99969 4.93042C9.89288 5.21027 10.0339 5.52856 10.3159 5.63751L11.337 6.02844C11.4011 6.05408 11.4673 6.06476 11.5335 6.06476C11.7514 6.06476 11.9586 5.93018 12.0419 5.71442C12.1509 5.43243 12.0099 5.11627 11.73 5.00732L10.7068 4.61426C10.6384 4.58649 10.5658 4.57581 10.4932 4.57794ZM9.90143 7.35718C9.60449 7.32086 9.33105 7.54303 9.29901 7.84424C9.2691 8.14545 9.487 8.41248 9.78607 8.44452L10.8755 8.55988C10.8926 8.56201 10.914 8.56201 10.9311 8.56201C11.2088 8.56201 11.4459 8.3548 11.4758 8.07281C11.5079 7.77161 11.29 7.50244 10.9888 7.4704L9.90143 7.35718ZM23.9514 9.95483C24.2441 9.95483 24.5197 10.0681 24.7269 10.2731C24.9319 10.4803 25.0452 10.7559 25.0452 11.0486C25.0452 11.3391 24.9319 11.6147 24.7269 11.8198L19.2068 17.3398L17.6602 15.7932L23.1802 10.2731C23.3853 10.0681 23.6609 9.95483 23.9514 9.95483ZM10.9119 10.0446L9.83093 10.2155C9.53186 10.2625 9.32892 10.5423 9.37591 10.8414C9.41864 11.1105 9.65149 11.3028 9.91638 11.3028C9.94415 11.3028 9.97192 11.3007 10.0018 11.2964L11.0828 11.1255C11.3797 11.0785 11.5848 10.7986 11.5378 10.5017C11.4908 10.2005 11.2109 9.99542 10.9119 10.0446ZM16.8869 16.5665L18.4335 18.1131L3.0719 33.4769C2.65747 33.8892 1.93756 33.8892 1.52527 33.4769C1.31805 33.2697 1.20483 32.9941 1.20483 32.7014C1.20483 32.4109 1.31805 32.1353 1.52527 31.9302L16.8869 16.5665ZM20.1169 22.988C19.9246 22.988 19.7324 23.0777 19.6362 23.2529L18.9484 24.5132C18.8437 24.7034 18.6877 24.8593 18.4976 24.964L17.2372 25.6519C17.0621 25.748 16.9531 25.9338 16.9531 26.1325C16.9531 26.3312 17.0621 26.517 17.2372 26.611L18.4998 27.301C18.6877 27.4057 18.8437 27.5616 18.9484 27.7518L19.6362 29.0121C19.7324 29.1873 19.9182 29.2984 20.1169 29.2984C20.3155 29.2984 20.5014 29.1895 20.5954 29.0121L21.2875 27.7518C21.3901 27.5616 21.546 27.4057 21.7383 27.301L22.9965 26.611C23.1717 26.517 23.2828 26.3312 23.2828 26.1325C23.2828 25.9338 23.1717 25.748 22.9965 25.6519L21.7383 24.964C21.546 24.8593 21.3901 24.7034 21.2854 24.5132L20.5954 23.2529C20.5014 23.0777 20.3091 22.988 20.1169 22.988ZM20.1169 24.6542L20.3262 25.0366C20.5292 25.4105 20.8368 25.7181 21.2106 25.9232L21.593 26.1325L21.2128 26.3419C20.8368 26.5469 20.5313 26.8524 20.3284 27.2263L20.1169 27.6086L19.9075 27.2263C19.7025 26.8524 19.3948 26.5469 19.021 26.344L18.6386 26.1325L19.021 25.9232C19.397 25.7181 19.7025 25.4126 19.9075 25.0366L20.1169 24.6542ZM29.9606 25.1755C29.7684 25.1755 29.5761 25.2652 29.48 25.4404L28.3606 27.489C28.1576 27.8586 27.8586 28.1577 27.489 28.3606L25.4404 29.48C25.2652 29.5761 25.1562 29.762 25.1562 29.9606C25.1562 30.1593 25.2652 30.3452 25.4404 30.4391L27.489 31.5628C27.8586 31.7636 28.1598 32.0627 28.3606 32.4301L29.48 34.4809C29.5761 34.6561 29.762 34.7672 29.9606 34.7672C30.1593 34.7672 30.3451 34.6561 30.4391 34.4809L31.5628 32.4323C31.7636 32.0648 32.0648 31.7636 32.4322 31.5628L34.4809 30.4391C34.6582 30.3452 34.7671 30.1593 34.7671 29.9606C34.7671 29.762 34.6561 29.5761 34.4809 29.48L32.4322 28.3606C32.0627 28.1577 31.7636 27.8564 31.5628 27.489L30.4391 25.4404C30.3451 25.2652 30.1529 25.1755 29.9606 25.1755ZM29.9606 26.8417L30.6015 28.0167C30.9027 28.5678 31.3535 29.0164 31.9067 29.3176L33.0795 29.9606L31.9067 30.6015C31.3556 30.9027 30.9027 31.3556 30.6015 31.9067L29.9606 33.0795L29.3176 31.9067C29.0164 31.3556 28.5657 30.9027 28.0145 30.6015L26.8417 29.9606L28.0167 29.3176C28.5678 29.0164 29.0164 28.5657 29.3176 28.0145L29.9606 26.8417Z"/>
</svg>

<svg xmlns="http://www.w3.org/2000/svg" viewBox="0 0 35 35"><path d="M23.79 0a.545.545 0 00-.524.39l-1.203 4.028a.535.535 0 01-.355.363.534.534 0 01-.5-.086l-3.34-2.55a.544.544 0 00-.846.615l1.394 3.965a.54.54 0 01-.072.504c-.107.147-.274.248-.457.224l-4.2-.102h-.015a.546.546 0 00-.31.997l3.46 2.387c.15.102.236.267.236.45a.537.537 0 01-.235.449l-3.46 2.388a.544.544 0 00-.21.618.55.55 0 00.534.378l3.283-.082L.752 31.156c-.414.414-.64.963-.64 1.546 0 .586.226 1.135.64 1.547.412.415.961.64 1.547.64.583 0 1.132-.225 1.546-.64L21.621 16.47l1.645 5.51a.545.545 0 001.046 0l1.203-4.027a.541.541 0 01.855-.28l3.34 2.553a.545.545 0 00.847-.615l-1.395-3.965a.539.539 0 01.072-.504.537.537 0 01.457-.225l4.2.103a.57.57 0 00.537-.38.546.546 0 00-.212-.618l-3.46-2.386a.54.54 0 01-.236-.45.54.54 0 01.235-.451l3.461-2.387a.546.546 0 00-.325-.997l-4.2.102a.497.497 0 01-.457-.224.539.539 0 01-.072-.504l1.395-3.965a.545.545 0 00-.846-.615L26.37 4.698a.534.534 0 01-.5.083.535.535 0 01-.355-.363L24.312.39A.545.545 0 0023.79 0zM13.9.004a.545.545 0 00-.485.887l.69.85a.546.546 0 10.849-.688l-.686-.85A.538.538 0 0013.9.004zm-2.108 2.072a.547.547 0 00-.237.983l.884.645a.54.54 0 00.32.103.544.544 0 00.443-.225.542.542 0 00-.12-.762l-.884-.645a.552.552 0 00-.406-.099zm11.997.385l.677 2.269a1.641 1.641 0 002.568.835l1.882-1.438-.786 2.235a1.64 1.64 0 00.22 1.508c.316.438.83.68 1.367.675l2.37-.058-1.951 1.348c-.444.306-.71.81-.71 1.35 0 .539.266 1.043.71 1.35l1.95 1.346-2.369-.058a1.668 1.668 0 00-1.367.676c-.316.435-.4 1-.22 1.508l.786 2.236-1.882-1.437a1.642 1.642 0 00-2.568.833l-.677 2.27-1.288-4.317 2.997-2.997c.415-.414.64-.963.64-1.546 0-.586-.226-1.135-.64-1.547a2.164 2.164 0 00-1.547-.64c-.583 0-1.132.226-1.546.64l-4.315 4.315-2.598.064 1.948-1.346a1.642 1.642 0 000-2.7l-1.948-1.348 2.367.058a1.66 1.66 0 001.37-.675c.315-.436.399-1 .22-1.508l-.787-2.235 1.88 1.438a1.641 1.641 0 002.57-.835l.677-2.27zM10.493 4.578A.553.553 0 0010 4.93a.55.55 0 00.316.708l1.021.39a.548.548 0 00.393-1.021l-1.023-.393a.524.524 0 00-.214-.036zm-.592 2.78a.547.547 0 10-.115 1.087l1.09.115a.546.546 0 10.113-1.09L9.9 7.357zm14.05 2.597c.293 0 .569.113.776.318a1.096 1.096 0 010 1.547l-5.52 5.52-1.547-1.547 5.52-5.52c.205-.205.48-.318.771-.318zm-13.04.09l-1.08.17a.546.546 0 10.17 1.081l1.082-.17a.547.547 0 00-.171-1.081zm5.976 6.522l1.546 1.546L3.072 33.477c-.415.412-1.134.412-1.547 0a1.089 1.089 0 01-.32-.776c0-.29.113-.566.32-.77l15.362-15.364zm3.23 6.421a.54.54 0 00-.48.265l-.689 1.26c-.104.19-.26.346-.45.451l-1.26.688a.55.55 0 00-.285.48c0 .2.11.385.284.479l1.263.69c.188.105.344.26.448.45l.688 1.261a.552.552 0 00.48.286.542.542 0 00.48-.286l.692-1.26c.102-.19.258-.346.45-.451l1.259-.69a.546.546 0 000-.96l-1.259-.687a1.135 1.135 0 01-.453-.45l-.69-1.261a.534.534 0 00-.478-.265zm0 1.666l.21.383c.202.373.51.681.884.886l.382.21-.38.209c-.376.205-.682.51-.885.884l-.211.383-.21-.383a2.215 2.215 0 00-.886-.882l-.382-.212.382-.209c.376-.205.681-.51.886-.886l.21-.383zm9.844.521a.54.54 0 00-.481.265l-1.12 2.049c-.202.37-.501.669-.871.872L25.44 29.48a.55.55 0 00-.284.48c0 .2.11.385.284.48l2.049 1.123c.37.2.67.5.872.867l1.119 2.05a.546.546 0 00.96 0l1.123-2.048c.2-.367.502-.668.87-.87l2.048-1.123a.542.542 0 00.286-.478.552.552 0 00-.286-.481l-2.049-1.12a2.188 2.188 0 01-.87-.871L30.44 25.44a.534.534 0 00-.478-.265zm0 1.667l.64 1.175c.302.55.753 1 1.306 1.3l1.173.644-1.173.64a3.28 3.28 0 00-1.305 1.306l-.641 1.173-.643-1.173a3.274 3.274 0 00-1.303-1.305l-1.173-.641 1.175-.643c.55-.302 1-.752 1.3-1.303l.644-1.173z"/></svg>
